X:146
T: ES RITT EIN HERR UND AUCH SEIN KNECHT
N: E0077
O: Europa, Mitteleuropa, Deutschland, Schlesien, Hainau
R: erzaehlendes Volks - Lied, Sage, Liebe
M: 2/4
L: 1/16
K: G
D2 | G4d3c | B6
c2 | B4A4 | G4z2
G2 | B2B2d2B2 | A2c2B2
G2 | B2B2d2B2 | A2c2B2
D2 | G4d3c | B6
c2 | B4A4 | G4z2

@@@ Tune index: 3796
